X:1
T:Title
%%score { ( 1 3 ) | 2 }
L:1/8
Q:1/4=86
M:4/4
K:Bb
V:1 treble nm="Grand Piano"
V:3 treble 
V:2 bass 
V:1
 [Fd][DF][EG][Ge] [Fd]2 [DB]2 | [Ec][EB][FA][EG] [DF]4 | [EG][GB][FA][EG] [DF]2 [Fd]2 | %3
w: Ethel~V.~Johnson * * * * *|||
 [=Ed][Ec][EB][EG] [_Ec]4 | [Fd][DF][EG][Ge] [Fd]2 [DB]2 | [Gc][GB][FA][EG] [DF]3 [DF] | %6
w: |||
 GABG FBed |[M:5/4] c4 z2 z4 |[M:4/4] [Ge][GB][GB][^FA] [GB]2 [Fc]2 | [Fd]>[Ec] [DB][Ec] [Fd]4 | %10
w: ||||
 [=Ed][Ec][B,EB][B,EG] [B,E][B,EG][Ed][EG] | [Fc]2 [Fd]2 [Ae]4 | [Fd][DF][EG][Ge] [Fd]2 [DB]2 | %13
w: |||
 [Gc][GB][FA][EG] [DF]3 [DF] | GABG FBed |[M:9/4] .c6 z6 z6 |] %16
w: |||
V:2
 [B,,B,][B,,B,][E,B,][E,B,] [B,,B,]2 [B,,B,]2 | [E,G,][E,G,][E,B,][E,B,] [B,,B,]4 | %2
 [E,B,][E,B,][E,B,][E,B,] [B,,B,]2 [B,,B,]2 | [C,B,][C,B,][C,B,][C,B,] [F,A,]4 | %4
 [B,,B,][B,,B,][E,B,][E,B,] [B,,B,]2 [B,,B,]2 | [E,B,][E,B,][E,B,][E,B,] [B,,B,]3 [B,,B,] | %6
 [E,B,E][E,A,E][=E,G,_D][E,B,D] [F,B,=D][F,B,D][F,B,G][F,B,F] |[M:5/4] [G,B,=E]2 [F,A,]2 [B,,B,]6 | %8
[M:4/4] [E,B,][E,E][E,E][E,E] [E,E]2 [E,B,]2 | [B,,B,]>[B,,B,] [B,,B,][B,,B,] [B,,B,]4 | %10
 [C,B,][C,B,]C,C, C,C,[C,B,][C,B,] | [F,A,]2 [F,B,]2 [F,C]4 | %12
 [B,,B,][B,,B,][E,B,][E,B,] [B,,B,]2 [B,,B,]2 | [E,B,][E,B,][E,B,][E,B,] [B,,B,]3 [B,,B,] | %14
 [E,B,E][E,A,E][=E,G,_D][E,B,D] [F,B,=D][F,B,D][F,B,G][F,B,F] | %15
[M:9/4] [G,B,=E]2 [F,A,]2 [B,,B,]2- [B,,B,]4 z2 z6 |] %16
V:3
 x8 | x8 | x8 | x8 | x8 | x8 | x8 |[M:5/4] z2 E2 [DB]6 |[M:4/4] x8 | x8 | x8 | x8 | x8 | x8 | x8 | %15
[M:9/4] z2 E2 [DB]2- [DB]4 z2 z6 |] %16

